icons/3_Generic/Shopping.svg

<svg width="1024" height="1024" fill="none" xmlns="http://www.w3.org/2000/svg"><g clip-path="url(#a)"><path d="M512 1024c282.77 0 512-229.23 512-512S794.77 0 512 0 0 229.23 0 512s229.23 512 512 512Z" fill="#8C72BD"/><path d="M732.65 373.8a14.47 14.47 0 0 0-11.13-5.22H327.85l-12.49-68.83c-2.92-16.09-16.93-27.78-33.28-27.77h-43.59c-8 0-14.49 6.49-14.49 14.49s6.49 14.49 14.49 14.49h43.47a4.833 4.833 0 0 1 4.83 3.96l61.61 338.84a52.957 52.957 0 0 0 15.07 28.43c-27.08 21.66-31.48 61.18-9.82 88.26 21.66 27.08 61.18 31.48 88.26 9.82 25.09-20.06 30.98-55.83 13.67-82.88H581.7c-18.67 29.22-10.12 68.05 19.1 86.72s68.05 10.12 86.72-19.1 10.12-68.05-19.1-86.72a62.803 62.803 0 0 0-33.86-9.88H400.7c-11.67 0-21.68-8.34-23.76-19.83l-8.69-47.8h285.88c25.68 0 47.69-18.35 52.29-43.62l29.34-161.5c.77-4.22-.37-8.56-3.12-11.86h.01ZM436.53 721.19c0 18.67-15.14 33.81-33.81 33.81s-33.81-15.14-33.81-33.81 15.14-33.81 33.81-33.81 33.81 15.14 33.81 33.81Zm231.85 0c0 18.67-15.14 33.81-33.81 33.81s-33.81-15.14-33.81-33.81 15.14-33.81 33.81-33.81 33.81 15.14 33.81 33.81Zm9.52-179.23c-2.09 11.48-12.09 19.83-23.76 19.83H363l-29.85-164.23h371.01l-26.25 144.4h-.01Z" fill="#fff"/></g><defs><clipPath id="a"><path fill="#fff" d="M0 0h1024v1024H0z"/></clipPath></defs></svg>

<svg width="1024" height="1024" viewBox="0 0 1024 1024" fill="none" xmlns="http://www.w3.org/2000/svg">
<g clip-path="url(#clip0_3_443)">
<path d="M512 1024C794.77 1024 1024 794.77 1024 512C1024 229.23 794.77 0 512 0C229.23 0 0 229.23 0 512C0 794.77 229.23 1024 512 1024Z" fill="#8C72BD"/>
<path d="M732.65 373.8C731.292 372.167 729.591 370.852 727.667 369.95C725.743 369.047 723.645 368.58 721.52 368.58H327.85L315.36 299.75C312.44 283.66 298.43 271.97 282.08 271.98H238.49C230.49 271.98 224 278.47 224 286.47C224 294.47 230.49 300.96 238.49 300.96H281.96C283.104 300.942 284.217 301.33 285.101 302.055C285.986 302.78 286.584 303.795 286.79 304.92L348.4 643.76C350.353 654.571 355.62 664.506 363.47 672.19C336.39 693.85 331.99 733.37 353.65 760.45C375.31 787.53 414.83 791.93 441.91 770.27C467 750.21 472.89 714.44 455.58 687.39H581.7C563.03 716.61 571.58 755.44 600.8 774.11C630.02 792.78 668.85 784.23 687.52 755.01C706.19 725.79 697.64 686.96 668.42 668.29C658.309 661.83 646.559 658.401 634.56 658.41H400.7C389.03 658.41 379.02 650.07 376.94 638.58L368.25 590.78H654.13C679.81 590.78 701.82 572.43 706.42 547.16L735.76 385.66C736.53 381.44 735.39 377.1 732.64 373.8H732.65ZM436.53 721.19C436.53 739.86 421.39 755 402.72 755C384.05 755 368.91 739.86 368.91 721.19C368.91 702.52 384.05 687.38 402.72 687.38C421.39 687.38 436.53 702.52 436.53 721.19ZM668.38 721.19C668.38 739.86 653.24 755 634.57 755C615.9 755 600.76 739.86 600.76 721.19C600.76 702.52 615.9 687.38 634.57 687.38C653.24 687.38 668.38 702.52 668.38 721.19ZM677.9 541.96C675.81 553.44 665.81 561.79 654.14 561.79H363L333.15 397.56H704.16L677.91 541.96H677.9Z" fill="white"/>
</g>
<defs>
<clipPath id="clip0_3_443">
<rect width="1024" height="1024" fill="white"/>
</clipPath>
</defs>
</svg>
